X: 24030
T: Lomonach Cross
R: reel
M: 4/4
K: Eminor
BE~E2 BE{G}ED|D2 FA ADFA|BE~E2 efge|dBAd BE~E2|
BE~E2 cE{G}EE|D2 FA DAFA|BE~E2 efge|dBAd BE E2||
e4 egfe|defa (3aba fd|edef {a}gfge|dBAd BE~E2|
e4 egfe|defa (3aba fa|b3 a fa{b}af|edef gfed||

